X:52
T: Lied auf  Magdeburges Belagerung
N: A0406
O: Europa, Mitteleuropa, Deutschland
N: Dresdner Cod. M. 53. 16. Jh.
R: Romanze, Ballade, Lied, Kriegslied
M: 4/2
L: 1/4
K: C
C2C2C2 | F3GA2_B2G2G2 | F4z2
F2D2F2 | G4E2F2D4 | C4z2
c2G2A2 | _B3AGFB2 | A4G4 | z2
C2D2E2 | F2G2A2_B2 | c4z2
G2_B2A2 | G4E2F3EDC | D4C8

@@@ Tune index: 365
